X: 33895
T: Red Lyon Hornpipe, The
R: three-two
M: 3/2
K: Gminor
|:Bdcd DEFD E2C2|Bdcd FBAc B2D2|Bdcd DEFD F2gf|edcB FBAc B4:|
|:Bdfd BdcB A2F2|DFBF GFGE E2C2|Bdfd BdcB A2gf|edcB FBAc B4:|

